Simply-Orange-Circles/scalable/categories/applications-games.svg

<?xml version="1.0" encoding="UTF-8" standalone="no"?>
<svg
   xmlns:dc="http://purl.org/dc/elements/1.1/"
   xmlns:cc="http://creativecommons.org/ns#"
   xmlns:rdf="http://www.w3.org/1999/02/22-rdf-syntax-ns#"
   xmlns:svg="http://www.w3.org/2000/svg"
   xmlns="http://www.w3.org/2000/svg"
   xmlns:sodipodi="http://sodipodi.sourceforge.net/DTD/sodipodi-0.dtd"
   xmlns:inkscape="http://www.inkscape.org/namespaces/inkscape"
   width="48"
   height="48"
   viewBox="0 0 12.7 12.7"
   version="1.1"
   id="svg4"
   sodipodi:docname="applications-games.svg"
   inkscape:version="0.92.4 (5da689c313, 2019-01-14)">
  <metadata
     id="metadata10">
    <rdf:RDF>
      <cc:Work
         rdf:about="">
        <dc:format>image/svg+xml</dc:format>
        <dc:type
           rdf:resource="http://purl.org/dc/dcmitype/StillImage" />
        <dc:title></dc:title>
      </cc:Work>
    </rdf:RDF>
  </metadata>
  <defs
     id="defs8" />
  <sodipodi:namedview
     pagecolor="#ffffff"
     bordercolor="#666666"
     borderopacity="1"
     objecttolerance="10"
     gridtolerance="10"
     guidetolerance="10"
     inkscape:pageopacity="0"
     inkscape:pageshadow="2"
     inkscape:window-width="1087"
     inkscape:window-height="480"
     id="namedview6"
     showgrid="false"
     inkscape:zoom="4.9166667"
     inkscape:cx="2.1355932"
     inkscape:cy="24"
     inkscape:window-x="0"
     inkscape:window-y="25"
     inkscape:window-maximized="0"
     inkscape:current-layer="svg4" />
  <path
     d="m 6.344,0.073 a 6.29,6.29 0 0 0 -6.29,6.29 6.29,6.29 0 0 0 6.29,6.288 6.29,6.29 0 0 0 6.29,-6.289 6.29,6.29 0 0 0 -6.29,-6.29 z M 6.326,1.009 A 5.407,5.407 0 0 1 11.733,6.416 5.407,5.407 0 0 1 6.326,11.823 5.407,5.407 0 0 1 0.92,6.416 5.407,5.407 0 0 1 6.326,1.01 Z M 3.04,3.414 c -0.088,0 -0.147,0.042 -0.167,0.117 L 1.9,8.469 C 1.77,8.953 2.794,9.532 3.47,9.142 l 1.574,-2.29 h 2.578 l 1.575,2.29 c 0.675,0.39 1.698,-0.189 1.568,-0.673 L 9.795,3.531 C 9.775,3.456 9.715,3.414 9.629,3.414 h -6.59 z m 1.137,0.573 a 0.143,0.143 0 0 1 0.01,0 H 4.474 A 0.143,0.143 0 0 1 4.617,4.13 v 0.43 h 0.43 A 0.143,0.143 0 0 1 5.19,4.703 V 4.989 A 0.143,0.143 0 0 1 5.046,5.133 h -0.43 v 0.43 A 0.143,0.143 0 0 1 4.474,5.705 H 4.187 A 0.143,0.143 0 0 1 4.044,5.562 V 5.132 H 3.614 A 0.143,0.143 0 0 1 3.471,4.989 V 4.703 A 0.143,0.143 0 0 1 3.614,4.56 h 0.43 V 4.13 A 0.143,0.143 0 0 1 4.177,3.987 Z m 4.142,0 a 0.286,0.286 0 0 1 0.021,0 A 0.286,0.286 0 0 1 8.626,4.274 0.286,0.286 0 0 1 8.34,4.56 0.286,0.286 0 0 1 8.053,4.274 0.286,0.286 0 0 1 8.319,3.987 Z M 7.746,4.56 a 0.286,0.286 0 0 1 0.02,0 A 0.286,0.286 0 0 1 8.053,4.846 0.286,0.286 0 0 1 7.767,5.133 0.286,0.286 0 0 1 7.481,4.846 0.286,0.286 0 0 1 7.746,4.56 Z m 1.145,0 a 0.286,0.286 0 0 1 0.022,0 A 0.286,0.286 0 0 1 9.199,4.846 0.286,0.286 0 0 1 8.913,5.133 0.286,0.286 0 0 1 8.626,4.846 0.286,0.286 0 0 1 8.891,4.56 Z M 8.319,5.133 a 0.286,0.286 0 0 1 0.021,0 A 0.286,0.286 0 0 1 8.626,5.419 0.286,0.286 0 0 1 8.34,5.706 0.286,0.286 0 0 1 8.053,5.419 0.286,0.286 0 0 1 8.319,5.133 Z"
     id="path2"
     inkscape:connector-curvature="0"
     style="fill:#ff7f2a" />
</svg>

<svg xmlns="http://www.w3.org/2000/svg" width="48" height="48" viewBox="0 0 12.7 12.7"><path fill="#ff7f2a" d="M6.34.07a6.29 6.29 0 0 0-6.29 6.3 6.29 6.29 0 0 0 6.3 6.28 6.29 6.29 0 0 0 6.28-6.29A6.29 6.29 0 0 0 6.34.07zm-.01.94a5.4 5.4 0 0 1 5.4 5.4 5.4 5.4 0 0 1-5.4 5.41 5.4 5.4 0 0 1-5.41-5.4A5.4 5.4 0 0 1 6.32 1zM3.04 3.4c-.09 0-.15.05-.17.12L1.9 8.47c-.13.48.9 1.06 1.57.67l1.57-2.29h2.58l1.58 2.3c.67.38 1.7-.2 1.56-.68L9.8 3.53c-.02-.07-.08-.12-.16-.12h-6.6zM4.18 4h.3a.14.14 0 0 1 .14.14v.43h.43a.14.14 0 0 1 .14.14V5a.14.14 0 0 1-.14.14h-.43v.43a.14.14 0 0 1-.15.15H4.2a.14.14 0 0 1-.15-.15v-.43h-.43A.14.14 0 0 1 3.47 5V4.7a.14.14 0 0 1 .14-.14h.43v-.43a.14.14 0 0 1 .14-.14zm4.14 0a.29.29 0 0 1 .02 0 .29.29 0 0 1 .29.28.29.29 0 0 1-.29.29.29.29 0 0 1-.29-.29.29.29 0 0 1 .27-.28zm-.57.57a.29.29 0 0 1 .02 0 .29.29 0 0 1 .28.29.29.29 0 0 1-.28.28.29.29 0 0 1-.29-.28.29.29 0 0 1 .27-.29zm1.14 0a.29.29 0 0 1 .02 0 .29.29 0 0 1 .29.29.29.29 0 0 1-.29.28.29.29 0 0 1-.28-.28.29.29 0 0 1 .26-.29zm-.57.57a.29.29 0 0 1 .02 0 .29.29 0 0 1 .29.29.29.29 0 0 1-.29.29.29.29 0 0 1-.29-.3.29.29 0 0 1 .27-.28z"/></svg>
